assets/Hand with index finger and thumb crossed/Dark/Flat/hand_with_index_finger_and_thumb_crossed_flat_dark.svg

<svg width="32" height="32" viewBox="0 0 32 32" fill="none" xmlns="http://www.w3.org/2000/svg">
<path d="M10.8899 2.06314C12.7591 1.12839 14.5994 3.39622 14.9762 4.47574L11.4985 9.75752C11.4985 9.75752 11.6697 9.15619 10.6726 6.99714C10.2028 5.97999 7.99016 3.51325 10.8899 2.06314Z" fill="#341A1C"/>
<path d="M15.5056 3.19028L6.92293 15.7689C5.71603 17.3619 5 19.3474 5 21.5002C5 26.7469 9.25329 31.0002 14.5 31.0002C18.0387 31.0002 21.1254 29.0654 22.7602 26.196L26.9226 20.2525C27.7879 19.017 27.4671 17.3116 26.2121 16.4749C25.8483 16.2324 25.4467 16.0902 25.04 16.042C25.7413 14.832 25.3931 13.2622 24.2061 12.4709C23.303 11.8689 22.1662 11.8868 21.3002 12.4267C21.6056 11.341 21.1996 10.1333 20.2061 9.47089C19.4805 8.98717 18.604 8.90369 17.8383 9.16958L19.9064 6.24993C20.7791 5.01786 20.4623 3.3084 19.2061 2.47089C17.9839 1.65609 16.3335 1.97692 15.5056 3.19028Z" fill="#573739"/>
<path d="M17.8845 9.15403L15.6 12.2C15.4343 12.4209 15.4791 12.7343 15.7 12.9C15.9209 13.0657 16.2343 13.0209 16.4 12.8L19.2021 9.06392C18.7599 8.98321 18.3064 9.01604 17.8845 9.15403Z" fill="#341A1C"/>
<path d="M21.3358 12.4048L19.1096 15.1877C18.9371 15.4033 18.972 15.7179 19.1877 15.8904C19.4033 16.0629 19.7179 16.028 19.8905 15.8123L22.9182 12.0277C22.3668 11.9872 21.8121 12.1182 21.3358 12.4048Z" fill="#341A1C"/>
<path d="M23.1 18.7001L25.0889 16.0483C25.4304 16.0952 25.7675 16.2087 26.0806 16.3927L23.9 19.3001C23.7343 19.521 23.4209 19.5658 23.2 19.4001C22.9791 19.2344 22.9343 18.921 23.1 18.7001Z" fill="#341A1C"/>
</svg>

<svg xmlns="http://www.w3.org/2000/svg" width="32" height="32" fill="none"><path fill="#341A1C" d="M10.89 2.063c1.87-.935 3.71 1.333 4.086 2.413l-3.478 5.282s.172-.602-.825-2.76c-.47-1.018-2.683-3.485.217-4.935Z"/><path fill="#573739" d="M15.506 3.19 6.923 15.77A9.458 9.458 0 0 0 5 21.5a9.5 9.5 0 0 0 17.76 4.696l4.163-5.944a2.687 2.687 0 0 0-1.883-4.21 2.68 2.68 0 0 0-3.74-3.615 2.681 2.681 0 0 0-3.462-3.257l2.068-2.92a2.68 2.68 0 1 0-4.4-3.06Z"/><path fill="#341A1C" d="M17.884 9.154 15.6 12.2a.5.5 0 0 0 .8.6l2.802-3.736a2.689 2.689 0 0 0-1.318.09ZM21.336 12.405l-2.226 2.783a.5.5 0 1 0 .78.624l3.028-3.784a2.691 2.691 0 0 0-1.582.377ZM23.1 18.7l1.989-2.652c.341.047.678.16.992.345L23.9 19.3a.5.5 0 0 1-.8-.6Z"/></svg>
